resources/svg/sd-card.svg

<svg xmlns="http://www.w3.org/2000/svg" fill="none" viewBox="0 0 14 14"><path fill="currentColor" fill-rule="evenodd" d="M10.2096 0.845445C8.55604 0.68975 7.07975 0.637678 5.12829 0.833308C4.77675 0.86855 4.45281 1.02965 4.21114 1.27942L1.96056 3.60537C1.7267 3.84707 1.57686 4.16398 1.54806 4.50738C1.36486 6.69165 1.5103 8.80487 1.69442 10.9209C1.7989 12.1215 2.75161 13.0896 3.9666 13.1759C6.17846 13.333 7.95315 13.333 10.165 13.1759C11.378 13.0898 12.3398 12.121 12.4152 10.9066C12.5781 8.28492 12.5764 5.73801 12.4116 3.11588L11.9126 3.14724L12.4116 3.11588C12.3364 1.92005 11.4017 0.957692 10.2096 0.845445ZM6.68359 2.8252C7.02877 2.8252 7.30859 3.10502 7.30859 3.4502V5.13733C7.30859 5.48251 7.02877 5.76233 6.68359 5.76233C6.33842 5.76233 6.05859 5.48251 6.05859 5.13733V3.4502C6.05859 3.10502 6.33842 2.8252 6.68359 2.8252ZM9.85986 3.4502C9.85986 3.10502 9.58004 2.8252 9.23486 2.8252C8.88969 2.8252 8.60986 3.10502 8.60986 3.4502V5.13733C8.60986 5.48251 8.88969 5.76233 9.23486 5.76233C9.58004 5.76233 9.85986 5.48251 9.85986 5.13733V3.4502Z" clip-rule="evenodd"></path></svg>

<svg xmlns="http://www.w3.org/2000/svg" fill="none" viewBox="0 0 14 14"><path fill="currentColor" fill-rule="evenodd" d="M10.21.845C8.556.69 7.08.638 5.128.833a1.484 1.484 0 0 0-.917.446l-2.25 2.326a1.476 1.476 0 0 0-.413.902c-.183 2.185-.038 4.298.146 6.414a2.466 2.466 0 0 0 2.273 2.255 40.84 40.84 0 0 0 6.198 0 2.425 2.425 0 0 0 2.25-2.27 61.8 61.8 0 0 0-.003-7.79l-.5.031.5-.031A2.435 2.435 0 0 0 10.21.846Zm-3.526 1.98c.345 0 .625.28.625.625v1.687a.625.625 0 1 1-1.25 0V3.45c0-.345.28-.625.625-.625Zm3.176.625a.625.625 0 1 0-1.25 0v1.687a.625.625 0 0 0 1.25 0V3.45Z" clip-rule="evenodd"/></svg>
